X:94873602654729
T:9-11-5-4-11-5-12-3-5-9-10-7-4-10-4-7
%%setfont-1 Courier-Bold 8
T:$1K.516f::119:87:113:13:135:2:106:81:90:88:19:29:73:38:145:151::$0
T:$1Perm. No.: 94873602654729$0
M:3/8
L:1/8
Q:1/8=111
%%staves [1 2]
V:1 clef=treble
V:2 clef=bass
K:C
%1
[V:1]|: e/c/g/e/c'/g/ |\
[V:2]|: [E,2C,2]z |\
%2
[V:1] gce |\
[V:2] [E,2C,2][G,C,] |\
%3
[V:1] fdB |\
[V:2] [B,2G,2]z |\
%4
[V:1] (cGE) |\
[V:2] [E,2G,2]z |\
%5
[V:1] ^ff/d/a |\
[V:2] D,D,D, & C,C,C,   |\
%6
[V:1] A^F/G/B/g/ |\
[V:2] [G,2B,,2]z |\
%7
[V:1] Ad/c/B/A/ \
[V:2] C,D,D,, \
%8a
[V:1]|1 [g2d2B2G2]z :|2
[V:2]|1 G,,G,/=F,/E,/D,/ :|2
%8b
[V:1] [g2d2B2G2]z |:\
[V:2] G,,B,/G,/^F,/E,/ |:\
%9
[V:1] ^f/a/d'/a/f/a/ |\
[V:2] [A,2C,2][A,C,] |\
%10
[V:1] g/d/g/b/g/d/ |\
[V:2] [D,2B,,2][D,B,,] |\
%11
[V:1] e/c/eg |\
[V:2] [G,2C,2][E,C,] |\
%12
[V:1] B/d/g/d/B |\
[V:2] G,2G,, |\
%13
[V:1] gec |\
[V:2] [E,/C,/]G,/[E,/C,/]G,/[E,/C,/]G,/ |\
%14
[V:1] cGe |\
[V:2] [E,/C,/]G,/[E,/C,/]G,/[E,/C,/]G,/ |\
%15
[V:1] d/f/A/d/B/d/ |\
[V:2] F,2G, |\
%16
[V:1] c2z :|]
[V:2] C,G,,C,, :|]
